images/logo_trustpilot.svg

<svg width="139" height="49" fill="none" xmlns="http://www.w3.org/2000/svg"><path fill-rule="evenodd" clip-rule="evenodd" d="M21.0487 17.7502H33.614l-10.1638 7.4656 3.8811 12.0748-10.1638-7.4656-10.17588 7.4656 3.89328-12.0748L.708984 17.7379l12.565316.0123 3.8932-12.08711 3.8812 12.08711Zm29.6791-.0009H36.8041v2.6233h5.4458v14.7473h3.0079V20.3726h5.47v-2.6233Zm1.977 4.7931h-2.5834v12.5652h2.7411v-5.9822c0-.6988.0849-1.3117.2668-1.8511.1819-.5394.4245-.9807.7277-1.3485.3032-.3555.655-.6374 1.0673-.8213.4124-.1839.849-.2819 1.3099-.2819.1941 0 .3881.0122.5943.0367.2062.0246.4003.0491.5943.0858v-2.6724c-.0712-.0065-.139-.0166-.2052-.0264-.0577-.0085-.1142-.0169-.1708-.0226-.1212-.0123-.3517-.0245-.667-.0245-.4124 0-.8248.0858-1.225.2452-.4003.1716-.7641.38-1.0916.6497-.3275.2574-.6064.5639-.8369.8826-.2304.3187-.3881.6497-.473.993h-.0485v-2.4273Zm14.6271 12.5775h2.6926V22.5547h-2.7411v7.2939c0 .4904-.0485.944-.1577 1.3608-.1091.4168-.2789.7845-.5215 1.0787-.2304.3065-.5458.5394-.9339.7233-.3881.1839-.8611.2697-1.4433.2697-.752 0-1.3463-.2329-1.7586-.6865-.4245-.4536-.6307-1.2381-.6307-2.3414v-7.7108h-2.7411v7.9805c0 1.6549.3638 2.893 1.0916 3.7144.7277.8213 1.9163 1.2258 3.5537 1.2258.6913 0 1.3705-.1961 2.0376-.5761.667-.38 1.1643-.8827 1.5039-1.5201h.0485v1.753Zm8.2718-2.3292c-.5216-.331-.8248-.8949-.9097-1.7039v.0245h-2.7653c.0243.7478.1698 1.3975.4488 1.9369.2789.5393.667.9929 1.1522 1.3607.4851.3555 1.0673.6252 1.7344.8091.6671.1838 1.3948.2697 2.1831.2697.6428 0 1.2978-.0736 1.9527-.2207.655-.1471 1.2614-.3923 1.7951-.711.5336-.3187.9703-.7478 1.3099-1.2627.3396-.5271.5094-1.1523.5094-1.9001 0-.6129-.1213-1.14-.3517-1.5568-.2305-.4168-.5337-.7601-.9097-1.042-.376-.282-.8005-.5026-1.2856-.662-.4852-.1594-.9703-.3065-1.4676-.4168-.1097-.0237-.2189-.0475-.3275-.0712-.3956-.0861-.7837-.1706-1.1643-.2475-.4852-.0981-.9097-.2207-1.2857-.3555-.376-.1471-.6792-.3187-.9096-.5271-.2305-.2084-.3517-.4781-.3517-.8214 0-.2819.0849-.5026.2425-.6742.1698-.1716.3639-.3065.5943-.3923.2426-.0858.4852-.1471.752-.1839.2668-.0367.4973-.049.6913-.049.6065 0 1.1523.1103 1.6253.3432.473.2207.7641.6743.8975 1.3362h2.8624c-.0849-.6987-.279-1.2994-.5943-1.7897-.3154-.4904-.7035-.8949-1.1765-1.2014-.473-.3187-1.0067-.5394-1.5889-.6742-.5821-.1349-1.2007-.2084-1.8435-.2084-.5579 0-1.1522.0613-1.7708.1716-.6186.1226-1.1765.3187-1.6859.6007-.4973.2819-.9218.6497-1.2492 1.1155-.3275.4659-.4973 1.0298-.4973 1.7163 0 .6374.1091 1.1645.3396 1.5936.2183.429.5215.7845.8975 1.0542.376.282.8005.5026 1.2735.662.473.1594.9703.3065 1.4797.4168.0898.0199.1792.0399.2683.0597.4042.0901.8017.1787 1.1993.259.4851.0981.9096.2207 1.2856.3555.376.1471.6792.3188.9218.5517.2426.2206.376.5148.3881.8704.0121.3555-.0728.6374-.2547.8581-.1941.2206-.4245.3922-.7156.5026-.2789.1103-.5943.1961-.9218.2329-.3274.0368-.6185.0613-.8732.0613-.7399 0-1.3706-.1716-1.9042-.4904ZM85.816 22.5424h-2.0497v2.0963h2.074v7.4165c.0121.5149.0727.9807.1576 1.3852.0971.4046.2547.7356.5094 1.0053.2426.2697.5943.478 1.031.6129.4366.1348 1.0188.2084 1.7465.2084.3032 0 .5943-.0123.8854-.049.1524-.0201.312-.0366.4749-.0533.1353-.014.2729-.0281.4105-.0448v-2.1453c-.1941.049-.3881.0736-.5822.0858-.1941.0123-.3881.0123-.5822.0123-.3153 0-.5458-.0368-.7277-.1103-.1819-.0736-.3153-.1839-.4002-.331-.0849-.1471-.1456-.331-.1698-.5394-.0243-.2207-.0364-.4658-.0364-.7601v-6.7177h2.4742v-2.0718h-2.4742v-3.7757H85.816v3.7757Zm9.7514 0h-2.5955v17.2235h2.7411v-6.2764h.0485c.2183.331.473.6252.7884.8826.3032.2574.6549.4658 1.0188.6252.3638.1594.7519.282 1.1522.3555.4002.0736.8005.1103 1.2007.1103.9214 0 1.7104-.1838 2.3894-.5516.679-.3678 1.237-.8459 1.674-1.4588.436-.6129.764-1.3117.982-2.1085.218-.7846.328-1.6059.328-2.4517 0-.9195-.122-1.7898-.364-2.5989-.243-.8091-.595-1.5201-1.08-2.133-.485-.613-1.091-1.091-1.819-1.4343-.728-.3555-1.577-.5271-2.5592-.5271-.8126 0-1.5524.1594-2.2437.4781-.6914.3187-1.225.8336-1.6132 1.5691h-.0485v-1.704Zm6.7676 4.6461c.146.5394.219 1.091.219 1.6549 0 .5517-.061 1.091-.17 1.6182-.122.5271-.328.9929-.607 1.4097-.279.4046-.63.7478-1.067 1.0052-.437.2575-.9582.3923-1.5889.3923-.5579 0-1.0552-.1103-1.4797-.3432-.4245-.2207-.7883-.5272-1.0915-.9194-.3154-.3923-.5337-.8581-.6914-1.3975-.1577-.5394-.2304-1.1278-.2304-1.7653 0-1.3484.2911-2.4272.8732-3.2363.5822-.8091 1.4555-1.2136 2.6077-1.2136.5579 0 1.055.1348 1.492.38.424.2452.788.5762 1.079.993.291.4168.51.8826.655 1.422Zm7.799-9.4392h-2.741v2.6233h2.741v-2.6233Zm0 4.7931h-2.741v12.5775h2.741V22.5424Zm5.191-4.7931h-2.741v17.3706h2.741V17.7493Zm5.749 17.2112c.776.331 1.662.5026 2.656.5026.995 0 1.88-.1716 2.656-.5026.777-.331 1.444-.7845 1.977-1.373.534-.5884.946-1.2871 1.225-2.0962.279-.8091.425-1.704.425-2.6724 0-.9562-.146-1.8388-.425-2.6479-.279-.8091-.691-1.5078-1.225-2.0962-.545-.5762-1.2-1.042-1.977-1.373-.776-.331-1.661-.5026-2.656-.5026-.994 0-1.88.1716-2.656.5026-.776.331-1.443.7846-1.977 1.373s-.946 1.2871-1.225 2.0962c-.279.8091-.424 1.6917-.424 2.6479 0 .9684.145 1.8633.424 2.6724.279.8091.691 1.5078 1.225 2.0962.546.5762 1.201 1.042 1.977 1.373Zm4.245-2.084c-.449.2575-.982.3923-1.589.3923-.606 0-1.14-.1226-1.589-.3923-.448-.2574-.812-.6006-1.103-1.0174-.292-.4168-.51-.8949-.643-1.422-.134-.5272-.206-1.0666-.206-1.6182 0-.5394.072-1.0665.206-1.6059.145-.5394.351-1.0052.643-1.422.291-.4045.655-.7478 1.103-1.0052.449-.2575.983-.3923 1.589-.3923.607 0 1.14.1348 1.589.3923.449.2574.813.5884 1.104 1.0052.291.4168.509.8826.643 1.422.133.5394.206 1.0665.206 1.6059 0 .5516-.073 1.091-.206 1.6182-.146.5271-.352 1.0052-.643 1.422-.291.4168-.655.76-1.104 1.0174Zm7.568-10.3341h-2.049v2.0963h2.074v7.4165c.012.5149.072.9807.157 1.3852.097.4046.255.7356.51 1.0053.242.2697.594.478 1.031.6129.436.1348 1.018.2084 1.746.2084.303 0 .594-.0123.885-.049.153-.0201.312-.0366.475-.0533.136-.014.273-.0281.411-.0448v-2.1453c-.194.049-.388.0736-.582.0858-.194.0123-.388.0123-.582.0123-.316 0-.546-.0368-.728-.1103-.182-.0736-.316-.1839-.4-.331-.085-.1471-.146-.331-.17-.5394-.025-.2207-.037-.4658-.037-.7601v-6.7177h2.475v-2.0718h-2.475v-3.7757h-2.741v3.7757Z" fill="#fff"/></svg>

<svg width="139" height="49" viewBox="0 0 139 49" fill="none" xmlns="http://www.w3.org/2000/svg">
<path fill-rule="evenodd" clip-rule="evenodd" d="M21.0487 17.7502H33.614L23.4502 25.2158L27.3313 37.2906L17.1675 29.825L6.99162 37.2906L10.8849 25.2158L0.708984 17.7379L13.2743 17.7502L17.1675 5.66309L21.0487 17.7502ZM50.7278 17.7493H36.8163H36.8041V20.3726H42.2499V35.1199H45.2578V20.3726H50.7278V17.7493ZM52.7048 22.5424H50.1335H50.1214V35.1076H52.8625V29.1254C52.8625 28.4266 52.9474 27.8137 53.1293 27.2743C53.3112 26.7349 53.5538 26.2936 53.857 25.9258C54.1602 25.5703 54.512 25.2884 54.9243 25.1045C55.3367 24.9206 55.7733 24.8226 56.2342 24.8226C56.4283 24.8226 56.6223 24.8348 56.8285 24.8593C57.0347 24.8839 57.2288 24.9084 57.4228 24.9451V22.2727C57.3516 22.2662 57.2838 22.2561 57.2176 22.2463C57.1599 22.2378 57.1034 22.2294 57.0468 22.2237C56.9256 22.2114 56.6951 22.1992 56.3798 22.1992C55.9674 22.1992 55.555 22.285 55.1548 22.4444C54.7545 22.616 54.3907 22.8244 54.0632 23.0941C53.7357 23.3515 53.4568 23.658 53.2263 23.9767C52.9959 24.2954 52.8382 24.6264 52.7533 24.9697H52.7048V22.5424ZM67.3319 35.1199H70.0245V22.5547H67.2834V29.8486C67.2834 30.339 67.2349 30.7926 67.1257 31.2094C67.0166 31.6262 66.8468 31.9939 66.6042 32.2881C66.3738 32.5946 66.0584 32.8275 65.6703 33.0114C65.2822 33.1953 64.8092 33.2811 64.227 33.2811C63.475 33.2811 62.8807 33.0482 62.4684 32.5946C62.0439 32.141 61.8377 31.3565 61.8377 30.2532V22.5424H59.0966V30.5229C59.0966 32.1778 59.4604 33.4159 60.1882 34.2373C60.9159 35.0586 62.1045 35.4631 63.7419 35.4631C64.4332 35.4631 65.1124 35.267 65.7795 34.887C66.4465 34.507 66.9438 34.0043 67.2834 33.3669H67.3319V35.1199ZM75.6037 32.7907C75.0821 32.4597 74.7789 31.8958 74.694 31.0868V31.1113H71.9287C71.953 31.8591 72.0985 32.5088 72.3775 33.0482C72.6564 33.5875 73.0445 34.0411 73.5297 34.4089C74.0148 34.7644 74.597 35.0341 75.2641 35.218C75.9312 35.4018 76.6589 35.4877 77.4472 35.4877C78.09 35.4877 78.745 35.4141 79.3999 35.267C80.0549 35.1199 80.6613 34.8747 81.195 34.556C81.7286 34.2373 82.1653 33.8082 82.5049 33.2933C82.8445 32.7662 83.0143 32.141 83.0143 31.3932C83.0143 30.7803 82.893 30.2532 82.6626 29.8364C82.4321 29.4196 82.1289 29.0763 81.7529 28.7944C81.3769 28.5124 80.9524 28.2918 80.4673 28.1324C79.9821 27.973 79.497 27.8259 78.9997 27.7156C78.89 27.6919 78.7808 27.6681 78.6722 27.6444C78.2766 27.5583 77.8885 27.4738 77.5079 27.3969C77.0227 27.2988 76.5982 27.1762 76.2222 27.0414C75.8462 26.8943 75.543 26.7227 75.3126 26.5143C75.0821 26.3059 74.9609 26.0362 74.9609 25.6929C74.9609 25.411 75.0458 25.1903 75.2034 25.0187C75.3732 24.8471 75.5673 24.7122 75.7977 24.6264C76.0403 24.5406 76.2829 24.4793 76.5497 24.4425C76.8165 24.4058 77.047 24.3935 77.241 24.3935C77.8475 24.3935 78.3933 24.5038 78.8663 24.7367C79.3393 24.9574 79.6304 25.411 79.7638 26.0729H82.6262C82.5413 25.3742 82.3472 24.7735 82.0319 24.2832C81.7165 23.7928 81.3284 23.3883 80.8554 23.0818C80.3824 22.7631 79.8487 22.5424 79.2665 22.4076C78.6844 22.2727 78.0658 22.1992 77.423 22.1992C76.8651 22.1992 76.2708 22.2605 75.6522 22.3708C75.0336 22.4934 74.4757 22.6895 73.9663 22.9715C73.469 23.2534 73.0445 23.6212 72.7171 24.087C72.3896 24.5529 72.2198 25.1168 72.2198 25.8033C72.2198 26.4407 72.3289 26.9678 72.5594 27.3969C72.7777 27.8259 73.0809 28.1814 73.4569 28.4511C73.8329 28.7331 74.2574 28.9537 74.7304 29.1131C75.2034 29.2725 75.7007 29.4196 76.2101 29.5299C76.2999 29.5498 76.3893 29.5698 76.4784 29.5896C76.8826 29.6797 77.2801 29.7683 77.6777 29.8486C78.1628 29.9467 78.5873 30.0693 78.9633 30.2041C79.3393 30.3512 79.6425 30.5229 79.8851 30.7558C80.1277 30.9764 80.2611 31.2706 80.2732 31.6262C80.2853 31.9817 80.2004 32.2636 80.0185 32.4843C79.8244 32.7049 79.594 32.8765 79.3029 32.9869C79.024 33.0972 78.7086 33.183 78.3811 33.2198C78.0537 33.2566 77.7626 33.2811 77.5079 33.2811C76.768 33.2811 76.1373 33.1095 75.6037 32.7907ZM85.816 22.5424H83.7663V24.6387H85.8403V32.0552C85.8524 32.5701 85.913 33.0359 85.9979 33.4404C86.095 33.845 86.2526 34.176 86.5073 34.4457C86.7499 34.7154 87.1016 34.9237 87.5383 35.0586C87.9749 35.1934 88.5571 35.267 89.2848 35.267C89.588 35.267 89.8791 35.2547 90.1702 35.218C90.3226 35.1979 90.4822 35.1814 90.6451 35.1647C90.7804 35.1507 90.918 35.1366 91.0556 35.1199V32.9746C90.8615 33.0236 90.6675 33.0482 90.4734 33.0604C90.2793 33.0727 90.0853 33.0727 89.8912 33.0727C89.5759 33.0727 89.3454 33.0359 89.1635 32.9624C88.9816 32.8888 88.8482 32.7785 88.7633 32.6314C88.6784 32.4843 88.6177 32.3004 88.5935 32.092C88.5692 31.8713 88.5571 31.6262 88.5571 31.3319V24.6142H91.0313V22.5424H88.5571V18.7667H85.816V22.5424ZM95.5674 22.5424H92.9719V39.7659H95.713V33.4895H95.7615C95.9798 33.8205 96.2345 34.1147 96.5499 34.3721C96.8531 34.6295 97.2048 34.8379 97.5687 34.9973C97.9325 35.1567 98.3206 35.2793 98.7209 35.3528C99.1211 35.4264 99.5214 35.4631 99.9216 35.4631C100.843 35.4631 101.632 35.2793 102.311 34.9115C102.99 34.5437 103.548 34.0656 103.985 33.4527C104.421 32.8398 104.749 32.141 104.967 31.3442C105.185 30.5596 105.295 29.7383 105.295 28.8925C105.295 27.973 105.173 27.1027 104.931 26.2936C104.688 25.4845 104.336 24.7735 103.851 24.1606C103.366 23.5476 102.76 23.0696 102.032 22.7263C101.304 22.3708 100.455 22.1992 99.4728 22.1992C98.6602 22.1992 97.9204 22.3586 97.2291 22.6773C96.5377 22.996 96.0041 23.5109 95.6159 24.2464H95.5674V22.5424ZM102.335 27.1885C102.481 27.7279 102.554 28.2795 102.554 28.8434C102.554 29.3951 102.493 29.9344 102.384 30.4616C102.262 30.9887 102.056 31.4545 101.777 31.8713C101.498 32.2759 101.147 32.6191 100.71 32.8765C100.273 33.134 99.7518 33.2688 99.1211 33.2688C98.5632 33.2688 98.0659 33.1585 97.6414 32.9256C97.2169 32.7049 96.8531 32.3984 96.5499 32.0062C96.2345 31.6139 96.0162 31.1481 95.8585 30.6087C95.7008 30.0693 95.6281 29.4809 95.6281 28.8434C95.6281 27.495 95.9192 26.4162 96.5013 25.6071C97.0835 24.798 97.9568 24.3935 99.109 24.3935C99.6669 24.3935 100.164 24.5283 100.601 24.7735C101.025 25.0187 101.389 25.3497 101.68 25.7665C101.971 26.1833 102.19 26.6491 102.335 27.1885ZM110.134 17.7493H107.393V20.3726H110.134V17.7493ZM110.134 22.5424H107.393V35.1199H110.134V22.5424ZM115.325 17.7493H112.584V35.1199H115.325V17.7493ZM121.074 34.9605C121.85 35.2915 122.736 35.4631 123.73 35.4631C124.725 35.4631 125.61 35.2915 126.386 34.9605C127.163 34.6295 127.83 34.176 128.363 33.5875C128.897 32.9991 129.309 32.3004 129.588 31.4913C129.867 30.6822 130.013 29.7873 130.013 28.8189C130.013 27.8627 129.867 26.9801 129.588 26.171C129.309 25.3619 128.897 24.6632 128.363 24.0748C127.818 23.4986 127.163 23.0328 126.386 22.7018C125.61 22.3708 124.725 22.1992 123.73 22.1992C122.736 22.1992 121.85 22.3708 121.074 22.7018C120.298 23.0328 119.631 23.4864 119.097 24.0748C118.563 24.6632 118.151 25.3619 117.872 26.171C117.593 26.9801 117.448 27.8627 117.448 28.8189C117.448 29.7873 117.593 30.6822 117.872 31.4913C118.151 32.3004 118.563 32.9991 119.097 33.5875C119.643 34.1637 120.298 34.6295 121.074 34.9605ZM125.319 32.8765C124.87 33.134 124.337 33.2688 123.73 33.2688C123.124 33.2688 122.59 33.1462 122.141 32.8765C121.693 32.6191 121.329 32.2759 121.038 31.8591C120.746 31.4423 120.528 30.9642 120.395 30.4371C120.261 29.9099 120.189 29.3705 120.189 28.8189C120.189 28.2795 120.261 27.7524 120.395 27.213C120.54 26.6736 120.746 26.2078 121.038 25.791C121.329 25.3865 121.693 25.0432 122.141 24.7858C122.59 24.5283 123.124 24.3935 123.73 24.3935C124.337 24.3935 124.87 24.5283 125.319 24.7858C125.768 25.0432 126.132 25.3742 126.423 25.791C126.714 26.2078 126.932 26.6736 127.066 27.213C127.199 27.7524 127.272 28.2795 127.272 28.8189C127.272 29.3705 127.199 29.9099 127.066 30.4371C126.92 30.9642 126.714 31.4423 126.423 31.8591C126.132 32.2759 125.768 32.6191 125.319 32.8765ZM132.887 22.5424H130.838V24.6387H132.912V32.0552C132.924 32.5701 132.984 33.0359 133.069 33.4404C133.166 33.845 133.324 34.176 133.579 34.4457C133.821 34.7154 134.173 34.9237 134.61 35.0586C135.046 35.1934 135.628 35.267 136.356 35.267C136.659 35.267 136.95 35.2547 137.241 35.218C137.394 35.1979 137.553 35.1814 137.716 35.1647C137.852 35.1507 137.989 35.1366 138.127 35.1199V32.9746C137.933 33.0236 137.739 33.0482 137.545 33.0604C137.351 33.0727 137.157 33.0727 136.963 33.0727C136.647 33.0727 136.417 33.0359 136.235 32.9624C136.053 32.8888 135.919 32.7785 135.835 32.6314C135.75 32.4843 135.689 32.3004 135.665 32.092C135.64 31.8713 135.628 31.6262 135.628 31.3319V24.6142H138.103V22.5424H135.628V18.7667H132.887V22.5424Z" fill="white"/>
</svg>
